X:1
T:Sonata for Two Violins in A Major
T:Sonata for Two Violins in A Major
T:Op. 3, No. 2
T:Jean-Marie Leclair
C:Jean-Marie Leclair
%%score [ ( 1 2 3 ) ( 4 5 ) ]
L:1/8
Q:1/4=110
M:4/4
K:A
V:1 treble nm="Violin"
V:2 treble 
V:3 treble 
V:4 treble nm="Violin"
V:5 treble 
V:1
"^Allegro" AA, z/ A,/C/E/ AA, z/ A,/C/E/ | A/A,/C/E/ AA AA, z/ A,/C/E/ | A/A,/C/E/ AA AA, z c | %3
 (B d2 c/B/) (c e2 d/c/) | (B d2 c/B/) (c e2 d/c/) | (B/c/)(B/c/) dc B/e/^d/c/ B/A/G/F/ | %6
 E2 eE z/ E/G/B/ eE | z2 z/ E/G/B/ e/B/e/g/ b/g/e/B/ | GE z/ E/G/B/ e/B/e/g/ be | %9
 ^d/B/d/f/ d/B/c/d/ e/B/G/B/ Ee | ^d/B/d/f/ d/B/c/d/ e/B/G/B/ G/E/B/e/ | %11
 (^d/e/)(d/e/) fe d/B/d/f/ bb | b/c/e/g/ aa a/B/^d/f/ gg | g/A/c/e/ ff f/G/B/^d/ ee | %14
 e2 T^d2 (E/B/)(F/A/) (G/B/)(A/c/) | (G/B/)(A/c/) (G/B/)(F/B/) (E/B/)(F/A/) (G/B/)(A/c/) | %16
 (G/B/)(A/c/) (G/B/)(F/B/) E(e/^d/) (c/B/)(A/G/) | (c/B/)(A/G/) TF>E E4 :: %18
 eE z/ E/G/B/ eE z/ E/G/B/ | dd dc/B/ (c/B/)(c/B/) A2 | aA z/ A/c/e/ aA z2 | %21
 z/ A/c/e/ c/A/B/c/ dAFD | z2 bB z/ B/^d/f/ b/B/d/f/ | aa ag/f/ (g/f/)(g/f/) e2 | %24
 c'c z/ c/^e/g/ c'c z2 | z/ c/^e/g/ e/c/^d/e/ fF (f/g/)(a/f/) | %26
 (g/f/)(g/f/) (g/f/)(e/=g/) (f/e/)(f/e/) (d/e/)(f/d/) | %27
 (e/d/)(e/d/) (e/d/)(c/e/) (d/c/)(d/c/) (B/c/)(d/B/) | (c/B/)(c/B/) (c/B/)(A/c/) d/c/B/A/ TG>F | %29
 F2 z c/B/ ^A/F/A/c/ A/F/G/A/ | B/F/^D/F/ D/B,/D/B/ ^A/F/A/c/ A/F/G/A/ | BF^DB, (f a2 g/f/) | %32
 (g b2 a/g/) (f a2 g/f/) | g/f/g/f/ e x G/E/G/B/ G/E/F/G/ | A/E/C/E/ C/A,/E/A/ G/E/G/B/ G/E/F/G/ | %35
 AECA, (e =g2 f/e/) | (f a2 ^g/f/) (g b2 a/g/) | (a c'2 b/a/) (b d'2 c'/b/) | c'a e'2- e'a Tb2 | %39
 a2 ee e/F/A/c/ dd | d/E/G/B/ cc c/D/F/A/ BB | B/C/E/G/ AA f/e/d/c/ BA | %42
 TGF E2 (A,/E/)(B,/D/) (C/E/)(D/F/) | (C/E/)(D/F/) (C/E/)(B,/E/) (A,/E/)(B,/D/) (C/E/)(D/F/) | %44
 (C/E/)(D/F/) (C/E/)(B,/E/) A,a/g/ f/e/d/c/ |1 f/e/d/c/ TB2 A4 :|2 f/e/d/c/ TB2 AECE || A,8 |] %48
[M:3/4][Q:1/4=70]"^Largo"[Q:1/4=70]"^Sarabanda" (c2 d2) e2 | A2 B2 c2 | d2 c2 B2 | c2 Bc A2 | %52
 c2 d2 e2 | A2 B2 c2 | d2 Tc3 d | TB6 :: (Bc) d2 d2- | d2 TcBcB | AB f2 g2 | Tf6 | (ba)(gf)gf | %61
 e2 f2 g2 | a2 Tf3 e | e3 f Ted | ef =g2 g2 | =g2 Tfefe | f^g a2 a2 | a2 T^gf g2 | ag f2 e2 | %69
 f=g f2 e2 | de d2 c2 | TB6 | c2 d2 e2 | A2 B2 c2 | dc TB3 A | A6 :| %76
[M:2/4][Q:1/4=120]"^Allegro" a2 e2 | TcB A2- | A/d/e/f/ ed | TcB A2- | A/d/e/f/ ed | TcBAe | aeea | %83
 beeb | c'd'/c'/ ba | Tb4 | z4 | a2 e2 | cAGE | A=GFE | DdcB | AE C2 | (A/c/)(e/c/) (A/c/)(e/c/) | %93
 (G/B/)(e/B/) (G/B/)(e/B/) | (A/c/)(e/A/) G/e/F/^d/ | E2 z b | (b/a/g/f/ e/^d/c/B/) | %97
 (c/A/B/c/ ^d/e/f/g/) | (a/g/f/e/ ^d/c/B/A/) | (B/G/A/B/ c/^d/e/f/) | (g/f/e/^d/ c/B/A/G/) | %101
 (A/F/G/A/ B/c/^d/e/) | (f/e/^d/c/ B/A/G/F/) | (G/E/F/G/) (A/F/G/A/) | (B/G/A/B/) (c/A/B/c/) | %105
 (^d/B/c/d/) eE | G2 TF2 | EE/^D/ ETF | z ee z | z cc z | z ^dd z | z BB z | z cc z | z AA z | %114
 z BB z | z EFB, | GEAF | BAGE | B2 B,2 | E4 :: e2 B2 | TGF E2- | E/A/B/c/ BA | TGF E2- | %124
 E/A/B/c/ BA | TGFEB | eBBe | fBBf | ga/g/ fe | Tf3 ^b | ^b/c'/^d'/c'/ b/a/g/f/ | %131
 ^ec'- c'/^d'/c'/=b/ | ^a/b/c'/b/ a/g/f/e/ | ^db- b/c'/b/a/ | g/a/b/a/ g/f/e/^d/ | ca- a/b/a/g/ | %136
 f/e/^d/c/ ^B/a/g/f/ | (e/^d/)c z g | (g/c/^B/c/) (g/c/B/c/) | (a/c/^B/c/) (a/c/B/c/) | %140
 (g/c/^B/c/) (g/c/)(g/c/) | (a/c/^B/c/) (a/c/)(a/c/) | (g/c/^B/c/) (g/c/)(g/c/) | a/g/f/e/ ^dc | %144
 e2 T^d2 | c2 z2 | z cc z | z cc z | z cc z | z cc z | z ccc | c2 z c | G/c/G/c/ G/^B/G/B/ | %153
 C-(C/4D/4E/4F/4 G/4A/4B/4c/4d/4e/4f/4g/4) | a2 e2 | TcB A2- | A/d/e/f/ ed | TcB A2- | %158
 A/d/e/f/ ed | TcBAe | aeea | beeb | c'd'/c'/ ba | Tb2 z E/D/ | (C/E/)(A/E/) (C/E/)(A/C/) | %165
 (D/F/)(A/F/) (D/F/)(A/F/) | (B,/D/)(G/D/) (B,/D/)(G/B,/) | (C/E/)(G/E/) (C/E/)(G/E/) | %168
 (A,/C/)(F/C/) (A,/C/)(F/A,/) | (B,/D/)(F/D/) (B,/D/)(F/D/) | (G,/B,/)(E/B,/) (G,/B,/)(E/G,/) | %171
 A,A, A,/B,/C/D/ | Ee Te2 | z e Te2 | z e Te2 | z e (e/c/TB/A/) | (a/c/TB/A/) (e/c/TB/A/) | %177
 (a/c/TB/A/) (e/c/TB/A/) | (a/c/TB/A/) (e/c/TB/A/) | ag/f/ ed | c2 TB2 | A4 :| %182
V:2
 x8 | x8 | x4 x2 x A | E4 E4 | E4 E4 | EEEE E x x2 | x8 | x8 | x8 | x8 | x8 | x8 | x8 | x8 | x8 | %15
 x8 | x8 | x8 :: x8 | x8 | x8 | x8 | x8 | x8 | x8 | x8 | x8 | x8 | x8 | x8 | x8 | x4 B4 | B4 B4 | %33
 B2 eB/A/ x4 | x8 | x4 A4 | A4 A4 | A4 A4 | A2 x2 x4 | x8 | x8 | x8 | x8 | x8 | x8 |1 x8 :|2 x8 || %47
 x8 |][M:3/4] A4 =G2 | F2 ^G2 A2 | D2 E4 | A,2 z2 A2 | A4 =G2 | F2 ^G2 A2 | G2 A4 | E6 :: %56
 E2 z F GE | A,2 z2 AG | FE ^D2 E2 | B6 | ^d z z2 ed | c2 ^d2 e2 | A2 B3 z | e3 x x2 | c z z B cA | %65
 D2 z2 z2 | ^d z z c dB | E2 z2 z2 | z2 z2 c2 | de d2 c2 | Bc B2 A2 | TG6 | A4 =G2 | F2 ^G2 A2 | %74
 D2 E3 z | A6 :|[M:2/4] x4 | x4 | x4 | x4 | x4 | x4 | x4 | x4 | x4 | x4 | x4 | x4 | x4 | x4 | x4 | %91
 x4 | x4 | x4 | x4 | x4 | x4 | x4 | x4 | x4 | x4 | x4 | x4 | x4 | x4 | x4 | x4 | x4 | GGG z | %109
 z AA z | z FF z | z GG z | z EE z | z FF z | z ^DD z | x4 | x4 | x4 | x4 | x4 :: x4 | x4 | x4 | %123
 x4 | x4 | x4 | x4 | x4 | x4 | x4 | x4 | x4 | x4 | x4 | x4 | x4 | x4 | x4 | x4 | x4 | x4 | x4 | %142
 x4 | x4 | x4 | x4 | z EE z | z FF z | z EE z | z FF z | z EEE | F2 z F | x4 | x4 | x4 | x4 | x4 | %157
 x4 | x4 | x4 | x4 | x4 | x4 | x4 | x4 | x4 | x4 | x4 | x4 | x4 | x4 | x4 | x4 | x4 | x4 | x4 | %176
 x4 | x4 | x4 | x4 | E2 E2 | A,4 :| %182
V:3
 x8 | x8 | x8 | x8 | x8 | x8 | x8 | x8 | x8 | x8 | x8 | x8 | x8 | x8 | x8 | x8 | x8 | x8 :: x8 | %19
 x8 | x8 | x8 | x8 | x8 | x8 | x8 | x8 | x8 | x8 | x8 | x8 | x8 | x8 | x8 | x8 | x8 | x8 | x8 | %38
 x8 | x8 | x8 | x8 | x8 | x8 | x8 |1 x8 :|2 x8 || x8 |][M:3/4] x6 | x6 | x6 | E2 z2 x2 | x6 | x6 | %54
 x6 | x6 :: x6 | E2 x4 | x2 B2 B2 | x6 | x6 | x6 | x6 | x6 | x6 | A2 z2 z2 | x6 | B2 x4 | x6 | x6 | %70
 x6 | x6 | x6 | x6 | x6 | x6 :|[M:2/4] x4 | x4 | x4 | x4 | x4 | x4 | x4 | x4 | x4 | x4 | x4 | x4 | %88
 x4 | x4 | x4 | x4 | x4 | x4 | x4 | x4 | x4 | x4 | x4 | x4 | x4 | x4 | x4 | x4 | x4 | x4 | x4 | %107
 x4 | x4 | x4 | x4 | x4 | x4 | x4 | x4 | x4 | x4 | x4 | x4 | x4 :: x4 | x4 | x4 | x4 | x4 | x4 | %126
 x4 | x4 | x4 | x4 | x4 | x4 | x4 | x4 | x4 | x4 | x4 | x4 | x4 | x4 | x4 | x4 | x4 | x4 | x4 | %145
 x4 | x4 | x4 | x4 | x4 | x4 | x4 | x4 | x4 | x4 | x4 | x4 | x4 | x4 | x4 | x4 | x4 | x4 | x4 | %164
 x4 | x4 | x4 | x4 | x4 | x4 | x4 | x4 | x4 | x4 | x4 | x4 | x4 | x4 | x4 | x4 | x4 | E4 :| %182
V:4
 z2 AA, z/ A,/C/E/ AA, | z2 z/ A,/C/E/ A/A,/C/E/ AA | AA, z/ A,/C/E/ A/A,/C/E/ AA | %3
 G/E/G/B/ G/E/F/G/ A/E/C/E/ A,A | G/E/G/B/ G/E/F/G/ A/E/C/E/ A,A | (G/A/)(G/A/) BA G2 z2 | %6
 eE z/ E/G/B/ eE z/ E/G/B/ | e/B/e/g/ b/g/e/B/ GE z/ E/G/B/ | e/B/e/g/ b/g/e/B/ GE z g | %9
 (f a2 g/f/) (g b2 a/g/) | (f a2 g/f/) (g b2 a/g/) | (f/g/)(f/g/) ag Tf2 z/ b/g/e/ | %12
 cc c/a/f/^d/ BB B/g/e/c/ | AA A/f/^d/B/ GG G/e/c/A/ | FG/A/ TF2 E2 x/ e/x/e/ | %15
 x/ e/x/e/ x/ e/x/e/ x/ e/x/e/ x/ e/x/e/ | x/ e/x/e/ x/ e/x/e/ e/^d/c/B/ A/G/F/E/ | %17
 (A/G/)(F/E/) A,B, E4 :: z2 eE z/ E/G/B/ eE | z/ E/G/B/ G/E/F/G/ AECA, | z2 aA z/ A/c/e/ a/A/c/e/ | %21
 =gg gf/e/ (f/e/)(f/e/) d2 | bB z/ B/^d/f/ bB z2 | z/ B/^d/f/ d/B/c/d/ eBGE | %24
 z2 c'c z/ c/^e/g/ c'/c/e/g/ | bb ba/g/ aFAF | cCEC DDFD | AA,CA, B,B,DB, | FFAF BGcC | %29
 F2 z2 (c e2 ^d/c/) | (^d f2 e/d/) (c e2 d/c/) | (^d/c/)(d/c/) Bf/e/ d/B/d/f/ d/B/c/d/ | %32
 e/B/G/B/ G/E/B/e/ ^d/B/d/f/ d/B/c/d/ | eBGE (B =d2 c/B/) | (c e2 d/c/) (B d2 c/B/) | %35
 (c/B/)(c/B/) A x c/A/c/e/ c/A/B/c/ | d/A/d/f/ d/B/c/d/ e/B/e/g/ e/c/d/e/ | %37
 f/c/f/a/ f/d/e/f/ g/e/g/b/ g/e/f/g/ | aecG AFDE | A,2 z/ e/c/A/ FF F/d/B/G/ | %40
 EE E/c/A/F/ DD D/B/G/E/ | CC C/E/C/A,/ Df/e/ d/e/c/d/ | B/c/A/B/ G/E/F/G/ x/ A/x/A/ x/ A/x/A/ | %43
 x/ A/x/A/ x/ A/x/A/ x/ A/x/A/ x/ A/x/A/ | x/ A/x/A/ x/ A/x/A/ a/g/f/e/ d/c/B/A/ |1 %45
 d/c/B/A/ eE A4 :|2 d/c/B/A/ eE A2 AE || CE A,6 |][M:3/4] A2 B2 c2 | d2 D2 C2 | B,2 E2 TG2 | %51
 A2 E2 A,2 | A2 B2 c2 | d2 D2 C2 | B,2 A,2 A2 | TG6 :: GA B2 B2 | B2 TAG A2- | AG F2 e2 | ^defedc | %60
 B2 e2 E2 | A4 G2 | Ff T^d3 e | efe=dcB | A2 e2 e2 | Te2 dc d2 | z2 f2 f2 | Tf2 e^de=d | c2 d2 A2 | %69
 D4 A2 | G2 G2 A2 | E2 edcB | A2 B2 c2 | d4 c2 | BA TG3 A | A6 :|[M:2/4] z4 | a2 e2 | cAGE | %79
 A=GFE | DdcB | AE C2 | A/c/e/c/ A/c/e/c/ | G/B/e/B/ G/B/e/B/ | A/c/e/A/ G/e/F/^d/ | %85
 Ee/f/ g/e/f/g/ | a2 e2 | TcB A2- | A/d/e/f/ ed | TcB A2- | A/d/e/f/ ed | TcBAe | aeea | beeb | %94
 c'd'/c'/ ba | Tb2 z2 | G2 z2 | A2 z2 | F2 z2 | G2 z2 | E2 z2 | F2 z2 | ^D2 z2 | E2 F2 | G2 A2 | %105
 BAGE | B2 B,2 | E2 z b | b/a/g/f/ e/^d/c/B/ | c/A/B/c/ ^d/e/f/g/ | a/g/f/e/ ^d/c/B/A/ | %111
 B/G/A/B/ c/^d/e/f/ | g/f/e/^d/ c/B/A/G/ | A/F/G/A/ B/c/^d/e/ | f/e/^d/c/ B/A/G/F/ | %115
 G/E/F/G/ A/F/G/A/ | B/G/A/B/ c/A/B/c/ | ^d/B/c/d/ eE | G2 TF2 | E4 :: z4 | e2 B2 | GE^DB, | %123
 E=DCB, | A,AGF | EB, G,2 | G/B/e/B/ G/B/e/G/ | F/A/^d/A/ F/A/d/F/ | Ee^de | B^d/c/ ^B/c/d | %130
 Gg- g/f/e/^d/ | c/^d/^e/d/ c/B/A/G/ | Ff- f/=e/^d/c/ | B/c/^d/c/ B/A/G/F/ | Ee- e/^d/c/B/ | %135
 A/B/c/B/ A/G/F/E/ | ^D2 G2 | C2 z2 | E2 z2 | F2 z2 | E2 z2 | F2 z2 | E2 z2 | F2 z2 | G c2 ^B | %145
 cC z g | g/c/^B/c/ g/c/B/c/ | a/c/^B/c/ a/c/B/c/ | g/c/^B/c/ g/c/g/c/ | a/c/^B/c/ a/c/a/c/ | %150
 g/c/^B/c/ g/c/g/c/ | a/g/f/e/ ^dc | e2 T^d2 | c2 z2 | z4 | a2 e2 | cAGE | A=GFE | DdcB | AE C2 | %160
 A/c/e/c/ A/c/e/c/ | G/B/e/B/ G/B/e/B/ | A/c/e/A/ G/e/F/^d/ | E2 z e | e/d/.e z =G | =G/E/.F z d | %166
 d/c/.d z F | F/D/.E z c | c/B/.c z E | E/C/.D z B | B/A/.B z D | D/B,/.C z c | %172
 B/G/TF/E/ c/A/G/A/ | B/G/TF/E/ c/A/G/A/ | B/G/TF/E/ c/A/G/A/ | B/A/G/F/ E/F/D/E/ | Ca Ta2 | %177
 z a Ta2 | z a Ta2 | ce/d/ cB | A2 TG2 | A4 :| %182
V:5
 x8 | x8 | x8 | x8 | x8 | x8 | x8 | x8 | x8 | B4 B4 | B4 B4 | BBBB B2 x2 | x8 | x8 | %14
 x4 x2 e/x/e/ x/ | e/x/e/ x/ e/x/e/ x/ e/x/e/ x/ e/x/e/ x/ | e/x/e/ x/ e/x/e/ x/ x4 | x8 :: x8 | %19
 x8 | x8 | x8 | x8 | x8 | x8 | x8 | x8 | x8 | x8 | x4 F4 | F4 F4 | F2 x2 x4 | x8 | x4 E4 | E4 E4 | %35
 E2 Ae/d/ x4 | x8 | x8 | x8 | x8 | x8 | x8 | x4 A/x/A/ x/ A/x/A/ x/ | %43
 A/x/A/ x/ A/x/A/ x/ A/x/A/ x/ A/x/A/ x/ | A/x/A/ x/ A/x/A/ x/ x4 |1 x8 :|2 x8 || x8 |][M:3/4] x6 | %49
 x6 | x6 | x6 | x6 | x6 | x6 | x6 :: x6 | x6 | x6 | x6 | x6 | x6 | x6 | x6 | x6 | x6 | x6 | x6 | %68
 x6 | x6 | x6 | x6 | x6 | x6 | x6 | x6 :|[M:2/4] x4 | x4 | x4 | x4 | x4 | x4 | x4 | x4 | x4 | x4 | %86
 x4 | x4 | x4 | x4 | x4 | x4 | x4 | x4 | x4 | x4 | x4 | x4 | x4 | x4 | x4 | x4 | x4 | x4 | x4 | %105
 x4 | x4 | x4 | x4 | x4 | x4 | x4 | x4 | x4 | x4 | x4 | x4 | x4 | x4 | x4 :: x4 | x4 | x4 | x4 | %124
 x4 | x4 | x4 | x4 | x4 | x4 | x4 | x4 | x4 | x4 | x4 | x4 | x4 | x4 | x4 | x4 | x4 | x4 | x4 | %143
 x4 | x4 | x4 | x4 | x4 | x4 | x4 | x4 | x4 | x4 | x4 | x4 | x4 | x4 | x4 | x4 | x4 | x4 | x4 | %162
 x4 | x4 | x4 | x4 | x4 | x4 | x4 | x4 | x4 | x4 | x4 | x4 | x4 | x4 | x4 | x4 | x4 | x4 | x4 | %181
 x4 :| %182

